X: 3255
T: BIG BARNEY
%R: jig
B: James Kerr "Merry Melodies" v.3 p.28 #255
Z: 2016 John Chambers <jc:trillian.mit.edu>
M: 6/8
L: 1/8
K: G
|:\
GBd gfe | dec B2c |\
[1 dBG G2A | BGE E2F :|\
[2 dBG ABc | BGG G2 |:\
d |\
gfg efg |
dec BAG |\
gfg efg | fdd d2d |\
efg gfe | dec B2c |\
dBG ABc | BGG G2 :|

%%sep 1 1 500
%%sep 1 1 500

